remix/Design/layout-3-line.svg

<svg viewBox="0 0 24 24" fill="currentColor" xmlns="http://www.w3.org/2000/svg"><path d="M4 21C3.44772 21 3 20.5523 3 20V4C3 3.44772 3.44772 3 4 3H20C20.5523 3 21 3.44772 21 4V20C21 20.5523 20.5523 21 20 21H4ZM8 10H5V19H8V10ZM19 10H10V19H19V10ZM19 5H5V8H19V5Z"/></svg>

<svg viewBox="0 0 24 24" xmlns="http://www.w3.org/2000/svg"><path fill="none" d="M0 0h24v24H0Z"/><path d="M4 21v0c-.56 0-1-.45-1-1V4v0c0-.56.44-1 1-1h16v0c.55 0 1 .44 1 1v16 0c0 .55-.45 1-1 1H4Zm4-11H5v9h3v-9Zm11 0h-9v9h9v-9Zm0-5H5v3h14V5Z"/></svg>
